X:18
T:Kate's Fling
C:Michael Grey
B:William Livingstone Volume 1
H:
O:Kevin Fraser
Z:Kevin Fraser
Q:1/4=90
K:HP
M:C
L:1/8
R:March
U: R = ///
U: r = //
U: V = !accent!
V:M gstem=up stem=down name="Melody" sname="Melody" 
V:H gstem=up stem=down name="Harmony" sname="Harmony"
V:C gstem=up stem=down name="C-Harmony" sname="C-Harmony"
V:S gstem=up stem=down clef=none dyn=up name="Snare" sname="Snare"
V:B gstem=up stem=down clef=none dyn=up name="Bass" sname="Bass"
V:T gstem=up stem=down clef=none dyn=up name="Tenor" sname="Tenor"
V:BB gstem=up stem=down name="Brass Bass" sname="Bass" transpose=-1  octave=-2 clef=bass
V:BC gstem=up stem=down name="Brass Chord" sname="ABCD-D" transpose=-1
V:BD gstem=up stem=down name="Brass Chord 2" sname="ABCD-B" transpose=-1
V:P gstem=up stem=down name="Piano" sname="Piano" transpose=0 octave=-1
I:MIDI=program 110
%%MIDI gracedivider 40
% %score {M BC BD BB}
% %MIDI program 109 #bagpipes
%%MIDI vol 100
[V:M] e [| {gf}g>a {f}g>e {gfg}f2 {e}f>d | {g}e>f {gf}g>a (3ged (3Bcd | {g}e>f {gf}g>a (3gfe {gfg}f>d | {g}e>f {gf}g>a {Bd}B<{e}A {GAG}A{d}B | 
[V:M]   | {gf}g>a {f}g>e {gfg}f2 {e}f>d | {g}e>f {gf}g>a (3ged (3Bcd | {g}e>f {gf}g>a (3gfe {gfg}f>d | {g}e>f {gf}g>a {Bd}B<{e}A {GAG}A |] 
[V:M] a [| {ef}e>d {gBd}B<{e}A {gf}g>a (3ged | {gef}e>A {GAGAG}A2 (3{g}G{d}G{e}G (3Bcd | {gef}e>d {gBd}B<{e}A {gf}g>a (3gfe |{g}e>f {gf}g>a {Bd}B<{e}A {GAG}Aa | 
[V:M]   | {ef}e>d {gBd}B<{e}A {gf}g>a (3ged | {gef}e>A {GAGAG}A2 (3{g}G{d}G{e}G (3Bcd | {gef}e>d {gBd}B<{e}A {gf}g>a (3gfe |{g}e>f {gf}g>a {Bd}B<{e}A {GAG}A |] 

